!!!!SEGMENT: pl-wtm--iii-41-637-2--001-002_joteyko-tadeusz--sonatine-g-dur-op-18-no-2-ii-dumka.krn
!!!cenid: 19xx:107
!!!COM: Joteyko, Tadeusz
!!!COM-rismID: pe50046072
!!!CDT: 1872-1932
!!!CNT: Polish
!!!OPR: Sonatine G-dur Op. 18 No. 2
!!!OTL: II. Dumka
!!!OMV: 002
!!!PDT:
!!!AGN: Secular; Sonata
!!!YEC: Copyright 2022 Narodowy Instytut Fryderyka Chopina (https://polishscores.org)
!!!YEM: License CC-BY-4.0 (https://creativecommons.org/licenses/by/4.0)
!!!SMS-siglum: PL-Wtm
!!!SMS-shelfmark: III.41.637-2
!!!SMS-variant:
!!!SMS-altvar:
!!!SMS-shelfwork: 001-002 M
!!!NIFC-rismSourceID: 1001141218
!!!NIFC-rismChildID: 1001141218
!!!NIFC-islandoraID: pl-wtm:20258
!!!URL-pdf-islandora: https://repozytorium.nifc.pl/islandora/object/pl-wtm%3A20258/datastream/PDF/view
!!!URL-scan: https://polish.musicsources.pl/pl/lokalizacje/galeria/druki-muzyczne/17522/4 @EN{Scan on Polish Music Sources Website} @PL{Skany w portalu Dziedzictwo Muzyki Polskiej w otwartym dostępie}
!!!IIIF:
!!!ONB-nifc: UWAGA: części Sonatiny: I. Allegro risoluto, II. Dumka, III. Alla Polacca
!!!AIN: 1 forte
!!!key: a
**kern	**fing	**kern	**fing	**dynam
*part1	*	*part1	*	*part1
*staff2	*	*staff1	*	*
*I"PIANO.	*	*I"PIANO.	*	*
*I'pf	*	*I'pf	*	*
*ICklav	*	*ICklav	*	*
*Iforte	*	*Iforte	*	*
*clefG2	*	*clefG2	*	*
*k[]	*	*k[]	*	*
*a:	*	*a:	*	*
*M6/8	*	*M6/8	*	*
=1	=1	=1	=1	=1
*	*	*^	*	*
*	*below	*	*	*	*
!	!	!LO:TX:i:a:t=Andantino.	!	!	!
((4.B/ 4.f	1 5	(8dd/L	[4.a\	4	pp
.	.	16ee/L	.	.	.
.	.	16dd/	.	.	.
.	.	16cc/	.	.	.
.	.	16dd/JJ	.	.	.
8c/)) 8e	2 4	8ee/)	8a\]	.	.
8r	.	8r	8ryy	.	.
(8d/ 8fL	1 3	([8a\ 8ddL	8ryy	4	.
*	*	*v	*v	*	*
=2	=2	=2	=2	=2
8e/J)	.	8a\]) 8ccJ	.	.
8r	.	8r	.	.
*clefF4	*	*	*	*
(8E\	4	((8d/ 8g#X 8b	5	.
4A\)	.	4c/)) 4a	4	.
8r	.	8r	.	.
=3	=3	=3	=3	=3
*	*	*^	*	*
!	!	!LO:TX:i:b:t=cantabile e mesto	!	!	!
4.AA\ 4.E	1 5	(4e/	4.c\	1 2	p
.	.	8cc/	.	5	.
4.BB\ 4.E	1 4	4b/	4.d\	1 4	.
.	.	8g#X/	.	2	.
*	*	*v	*v	*	*
=4	=4	=4	=4	=4
4C\ 4E	3 5	4e/ 4a	1 3	.
8E\	.	8a\ 8cc	3 5	<
4A\	1	4a\ 4cc 4ee	1 2 4	.
8G\	2	8a\) 8cc 8ee	.	[[
=5	=5	=5	=5	=5
(4F\	3	4a\ 4cc 4dd 4ff	1 2 5	.
8G\	2	(8g\ 8cc 8ee	1 3 5	.
4A\	1	4f/ 4cc 4dd	1 3 4	.
8G\)	2	8g\ 8b 8ff	5	.
!!LO:LB:g=original
=6	=6	=6	=6	=6
*	*	*^	*	*
(4c\	1	4.g\ 4.cc\	4.cc/	1 3 5	.
8C/)	.	.	.	.	>
(4B\	.	4.g#X\) 4.dd	4.ryy	1 4	.
8BB/)	.	.	.	.	]
*	*	*v	*v	*	*
=7	=7	=7	=7	=7
*	*	*^	*	*
4.AA/ 4.E	.	(8e/L	4.c\	2	.
.	.	8f/	.	3	.
.	.	8cc/J	.	5	.
4.BB/ 4.E	.	4d/ 4b	8ryy	1 4	.
.	.	.	4ryy	.	.
.	.	8e/ 8g#X	.	1 2	.
*	*	*v	*v	*	*
=8	=8	=8	=8	=8
*^	*	*	*	*
8E/L	4.C\	3 5	4e/ 4a	1 3	.
8F/	.	.	.	.	.
8c/J	.	.	8a\ 8ee	2 5	.
8B/L	4.D\	2 5	4a\ 4gg	1 5	.
8A/	.	1	.	.	.
8G#X/J	.	2	8b\) 8ff	4	.
=9	=9	=9	=9	=9	=9
*	*	*	*^	*	*
4A/	4E\	1 3	(4cc\ 4ee\	4ryy	.	.
8A/	8F\	1 2	8a\) 8dd\	8ryy	.	.
4A/	4.E\	.	(4cc/	8e\L	1 5	.
.	.	.	.	8d#X\	2	.
8G#X/	.	.	8b/	8dn\J	5	.
*	*	*	*v	*v	*	*
=10	=10	=10	=10	=10	=10
4r	2.AA\	.	[4.c/) [4.a	.	p
8E/	.	.	.	.	.
4E/	.	.	4c/] 4a]	.	.
8E/	.	.	8cc\	.	f
*v	*v	*	*	*	*
!!LO:LB:g=original
=11	=11	=11	=11	=11
4AA/ 4E	.	4.c^>/ 4.d#X 4.f#X	.	.
8AA/ 8E	.	.	.	.
4AA/ 4E	.	4.B^>/ 4.dn 4.g#X	.	.
8AA/ 8E	.	.	.	.
=12	=12	=12	=12	=12
*^	*	*	*	*
4r	2.AA\	.	[4.c/ [4.a	.	>
8E/	.	.	.	.	.
4E/	.	.	4c/] 4a]	.	.
8E/	.	.	8cc\	.	]f
*v	*v	*	*	*	*
=13	=13	=13	=13	=13
8r	.	4.c^>/ 4.d#X 4.f#X	.	.
(16AA/LL	3	.	.	.
16BB/	.	.	.	.
16C/	.	.	.	.
16AA/JJ)	.	.	.	.
8r	.	4.B^>/ 4.dn 4.g#X	.	.
(16E/LL	1	.	.	.
16D/	.	.	.	.
16C/	.	.	.	.
16BB/JJ	.	.	.	.
=14	=14	=14	=14	=14
8AA/)	5	8c/ 8a	.	.
8r	.	8r	.	pp
(8FF/	.	8c/ 8f 8a	.	.
4AA;/)	.	4c;/ 4e 4a	.	.
8r	.	8r	.	.
=15||	=15||	=15||	=15||	=15||
[4.GG/	.	8r	.	f <
!	!	!LO:TX:i:a:t=Un poco animato.	!	!
.	.	(8f'\L 8dd	5	.
.	.	8g'\J 8ee	5	.
16GG\LL]	.	8a'\L 8ff	.	.
(32F#X\L	3	.	.	.
32G\J	2	.	.	.
16A\	1	8g'\ 8ee	.	[
16G\	4	.	.	.
16A\	.	8f'\J) 8dd	.	.
16B\JJ	.	.	.	.
!!LO:LB:g=original
=16	=16	=16	=16	=16
8c\L	1	(>4.e/ 4.cc	.	>
8d\	2	.	.	.
8c\J	3	.	.	.
8B\L	1	4.g/)	.	.
8A\	2	.	.	.
8G\J	3	.	.	]
=17	=17	=17	=17	=17
[4.GG/)	.	8r	.	.
.	.	(8a\L 8ff	5	.
.	.	8b'\J 8gg	5	<
16GG\LL]	.	8cc'\L 8aa	5	.
(16F#X\	3	.	.	.
16G\	2	8b'\ 8gg	.	.
16A\	1	.	.	.
16B\	2	8a'\J) 8ff	.	[
16G\JJ	4	.	.	.
=18	=18	=18	=18	=18
8c\L	1	((4.a\ 4.ff	.	.
8B\	.	.	.	.
8c\J	.	.	.	.
8C\L	5	4.g\)) 4.ee	.	.
8D\	4	.	.	.
8E\J)	3	.	.	.
=19	=19	=19	=19	=19
*	*	*^	*	*
(8F#X\L	4	(4a\ 4ee	4ryy	2 5	.
8A\	2	.	.	.	.
8d\J	1	8f#X/) 8a	8ryy	1 2	.
8c\L	2	8a/L	4f#\	.	.
8B\	3	8b/	.	.	.
8A\J	1	8cc/J	8f#\	1 4	.
=20	=20	=20	=20	=20	=20
8G\L	2	(4.ee/	2.g\	1 5	.
16F#X\L	3	.	.	.	.
16G\	.	.	.	.	.
16A\	.	.	.	.	.
16G\JJ	.	.	.	.	.
8B\L	1	4.dd/)	.	4	.
8A\	.	.	.	.	.
8G\J	.	.	.	.	.
!!LO:LB:g=original
=21	=21	=21	=21	=21	=21
4.A\)	2	4.cc/	8g\L	3 5	.
.	.	.	8f#X\	.	.
.	.	.	8e\J	.	.
(8D\L	5	4f#/ 4b	8ryy	2 5	>
8d\	.	.	4ryy	.	.
8c\J	.	8f#/ 8a	.	2 4	.
*	*	*v	*v	*	*
=22	=22	=22	=22	=22
8B\L	5	[4.g/	.	.
8A\	.	.	.	.
8B\J	.	.	.	.
4G\)	5	4g/]	.	]
8r	.	8r	.	.
=23	=23	=23	=23	=23
8r	.	(4dd\	5	pp
(8fn\L	1	.	.	.
!	!	!LO:TX:i:b:t=dolce	!	!
8e\J	.	8g/)	1	.
4e-X\	3	(>8g/L	2	.
.	.	8a/	.	.
8d\	1	8b-X/J	4	.
=24	=24	=24	=24	=24
8c\L	2	4.a/	3	.
8A\	.	.	.	.
8B-X\J	.	.	.	.
8c\L	.	4.e-X/)	1	.
8An\	4	.	.	.
8G\J)	5	.	.	.
=25	=25	=25	=25	=25
8r	.	(4a/	5	.
8c\L	1	.	.	.
(8B-X\J	2	8d/	1	.
8A\L	1	8f#X/L	2	.
8G\	2	8g/	3	.
8F#X\J	3	8a/J)	4	.
!!LO:LB:g=original
=26	=26	=26	=26	=26
8G/L	1	2.b-X\	5	.
8GG/	5	.	.	.
8AA/J	3	.	.	.
8BB-X/L	2	.	.	.
8AA/	.	.	.	.
8GG/J)	4	.	.	.
=27	=27	=27	=27	=27
8FFn/L	5	(4ee-X\	5	<
8C/	.	.	.	.
8Fn/J	.	8a/)	1	.
8E-X/L	2	8a\L	2	.
8D/	3	8b-X\	3	.
8C/J	4	8cc\J	4	.
=28	=28	=28	=28	=28
*	*	*^	*	*
4.BB-X/	5	4.dd/	8a\L	3 5	.
.	.	.	8g\	2	.
.	.	.	8f\J	1	.
4C/	3	4cc/	8e\L	2 5	.
.	.	.	8d\	.	.
8C#X/	2	8b-X/	8e\J	4	.
=29	=29	=29	=29	=29	=29
8D/L	1	4a/	8f\L	2 3	.
8C#X/	.	.	8e\	.	.
8D/J	.	8a/	8f\J	2 4	.
4.AA/	4	8cc#X/L	4.g\	1 3	.
.	.	8dd/	.	.	.
.	.	8ee/J	.	.	.
*	*	*v	*v	*	*
=30	=30	=30	=30	=30
8D\L	1	[4.f/ [4.dd	.	.
8D\	3	.	.	.
8E\J	.	.	.	.
8F\L	.	4f/] 4dd]	.	>
8E\	.	.	.	.
8D\J	.	8r	.	]]
!!LO:PB:g=original
=31	=31	=31	=31	=31
*	*	*^	*	*
!	!	!LO:TX:i:b:t=sempre legato	!	!	!
2.G\	.	4.dd/	8f\L	1 5	p
.	.	.	8g\	.	.
.	.	.	8a\J	1	.
.	.	4.ee/	8b-X\L	3 5	.
.	.	.	8a\	.	.
.	.	.	8g\J	.	.
*	*	*v	*v	*	*
=32	=32	=32	=32	=32
(8G#X\L	4	4.f\ 4.ff	.	.
8A\	.	.	.	.
8B\J	.	.	.	.
8c\L	.	4.a\ 4.ee	.	.
8B\	.	.	.	.
8A\J	.	.	.	.
=33	=33	=33	=33	=33
*^	*	*^	*	*
4r	2.F\)	5	2.dd/	8a\L	3 5	.
.	.	.	.	8g#X\	2	.
8r	.	.	.	8a\J	1	.
8A/L	.	.	.	8cc\L	3	>
8B/	.	.	.	8b\	.	.
8c/J	.	.	.	8a\J	.	.
=34	=34	=34	=34	=34	=34	=34
4.c/	2.E\	.	2.ee/	4.a\	.	.
4.B/	.	.	.	4.g#X\	.	]
*v	*v	*	*	*	*	*
*	*	*v	*v	*	*
=35	=35	=35	=35	=35
2.D\ 2.E	.	8r	.	pp
.	.	(8f/L	2	.
.	.	8e/J	.	.
.	.	8b/L	4	.
.	.	8a/	.	.
.	.	8g#X/J)	.	.
!!LO:LB:g=original
=36	=36	=36	=36	=36
2.C\ 2.E	.	8r	.	.
.	.	(8f/L	2	.
.	.	8e/J	.	.
.	.	8cc\L	5	.
.	.	8b\	.	.
.	.	8a\J)	.	.
=37	=37	=37	=37	=37
2.BB-X\ 2.E 2.G	.	8r	.	<
.	.	(8g/L	.	.
.	.	8b-X/J	.	.
.	.	8cc#X\L	3	.
.	.	8ff\	5	[
.	.	8ee\J	4	.
=38	=38	=38	=38	=38
!	!	!LO:TX:i:b:t=rit.	!	!
4.BBn\ 4.E 4.G#X	.	8dd\L	3	>
.	.	8ccn\	2	.
.	.	8bn\J	1	.
4r	.	8a/L	4	.
.	.	8g#X/	3	.
8r	.	8f/J)	2	]
=39||	=39||	=39||	=39||	=39||
*	*	*^	*	*
!	!	!LO:TX:i:a:t=Tempo I.	!	!	!
8AA\L	5	(4e/	4.c\	1 2	pp
8D#X\	.	.	.	.	.
8E\J	.	8cc/	.	5	.
8BB\L	4	4b/	4.d\	4	.
8D#\	.	.	.	.	.
8E\J	.	8g#X/	.	2	.
*	*	*v	*v	*	*
=40	=40	=40	=40	=40
8C\L	5	4e/ 4a	1 3	.
8D#X\	.	.	.	.
8E\J	.	8a\ 8cc	3 5	.
8A\L	1	4a\ 4cc 4ee	1 2 4	.
8G#X\	.	.	.	.
8Gn\J	3	8a\) 8cc 8ee	.	.
!!LO:LB:g=original
=41	=41	=41	=41	=41
8F/L	1	(4a\ 4cc 4ff	5	.
8FF/	5	.	.	.
8GG/J	.	8g\ 8cc 8ee	5	.
8AA/L	.	4f/ 4cc 4dd	4	.
8GG/	4	.	.	.
8BB/J	2	8g\ 8dd 8ff	.	.
=42	=42	=42	=42	=42
*	*	*^	*	*
8C/L	1	2.ee/	4.g\ 4.cc	5	>
8D/	2	.	.	.	.
8C/J	3	.	.	.	.
8BB/L	4	.	4.g#X\) 4.dd	4	]
8C/	1	.	.	.	.
8BB/J	2	.	.	.	.
=43	=43	=43	=43	=43	=43
8AA/L	3	(4e/	4.c\	1 2	.
8BB/	1	.	.	.	.
8AA/J	.	8cc/	.	5	.
8GG#X/L	3	4b/	4.d\	4	.
8FF#X/	.	.	.	.	.
8EE/J	5	8g#X/	.	.	.
=44	=44	=44	=44	=44	=44
8AA/L	3	4c/ 4a	4.ryy	.	<
8BB/	.	.	.	.	.
8C/J	.	8a\ 8ee	.	.	.
8C#X\L	4	8ee/L 8gg	4.a\	5	.
8D\	.	8dd/ 8ff	.	.	[
8E\J	.	8cc#X/J) 8ee	.	.	.
=45	=45	=45	=45	=45	=45
8F\L	1	(8a/L 8dd	4.ryy	1 4	.
8E\	.	8a/ 8ccn	.	.	.
8D#X\J	.	8a/J) 8b	.	.	>
((4.EE/ 4.Dn	.	4b/	8g#X\L	5	.
.	.	.	8f#X\	.	.
.	.	8g#/	8e\J	.	]]
*	*	*v	*v	*	*
!!LO:LB:g=original
=46	=46	=46	=46	=46
4AA/)) 4C	2 3	8a\L	1	<
.	.	8b\	.	.
8r	.	8cc\J	.	.
4r	.	8dd\L	1	.
.	.	8ee\	.	[
8r	.	8ff\J	.	.
=47	=47	=47	=47	=47
*	*	*^	*	*
(8A\L	4	4.gg/	4r	4	mf
8c\	.	.	.	.	.
8e\J	.	.	8r	.	.
4.d\)	.	4.ff/	8cc\L	3 5	.
.	.	.	8b\	.	.
.	.	.	[8a\J	.	.
=48	=48	=48	=48	=48	=48
(8F\L	4	4.ee/	4.a\]	4	.
8A\	.	.	.	.	.
8c\J	.	.	.	.	.
4.B\)	.	4.dd/	8a\L	3 5	.
.	.	.	8g\	.	.
.	.	.	[8f\J	.	.
=49	=49	=49	=49	=49	=49
(8D\L	5	4.cc/	4.f\]	4	.
8F\	.	.	.	.	>
8A\J	.	.	.	.	.
4.G\	2	8b/L	4.f\	1 3	.
.	.	8a/	.	.	.
.	.	8b/J	.	.	]
=50	=50	=50	=50	=50	=50
4C/)	5	8cc/L	4e\	4	.
.	.	8ee/	.	5	.
8r	.	8dd/J	8r	.	.
4r	.	8cc/L	4r	.	.
.	.	8b/	.	.	.
8r	.	8a/J	8r	.	.
*	*	*v	*v	*	*
!!LO:LB:g=original
=51	=51	=51	=51	=51
8r	.	4.c#X/ 4.g	2 5	pp
8AA/L	5	.	.	.
8E/J	2	.	.	.
8D\L	3	8d/L 8f	.	.
8E\	.	8e/	.	.
8F\J	1	8d/J	.	.
=52	=52	=52	=52	=52
8F#X\L	4	4.c/ 4.e	.	.
8G\	.	.	.	.
8G#X\J	.	.	.	.
8A\L	1	4.c/ 4.d#X	.	.
8G#\	.	.	.	.
8Fn\J	3	.	.	.
=53	=53	=53	=53	=53
8E\ 8A	1 4	8c/ 8e	.	.
8r	.	8r	.	.
8r	.	8r	.	.
8E\ 8G#X	.	8B/ 8e	.	.
8r	.	8r	.	.
8r	.	8r	.	.
=54	=54	=54	=54	=54
*^	*	*	*	*
4r	2.AA\	.	4A/	.	>
8E/	.	.	8r	.	.
4E/	.	.	4r	.	.
8E/	.	.	8cc\	.	] f
=55	=55	=55	=55	=55	=55
8r	2.AA\	.	4.c^>/ 4.d#X 4.f#X	.	.
16D#X/LL	.	3	.	.	.
16E/	.	.	.	.	.
16F/	.	.	.	.	.
[<16E/JJ	.	.	.	.	.
8E/L]	.	.	4.B^>/ 4.dn 4.g#X	.	.
16D#/L	.	.	.	.	.
16E/	.	.	.	.	.
16F/	.	.	.	.	.
16E/JJ	.	.	.	.	.
=56	=56	=56	=56	=56	=56
4r	2.AA\	.	[4.c/ [4.a	.	>
8E/	.	.	.	.	.
4E/	.	.	4c/] 4a]	.	.
8E/	.	.	8cc\	.	]f
*v	*v	*	*	*	*
!!LO:LB:g=original
=57	=57	=57	=57	=57
4.AA^\ 4.D#X 4.F#X	.	16f#X^>/LL	3	.
.	.	16c/	1	.
.	.	16d#X/	2	.
.	.	16f#/	3	.
.	.	16a/	4	.
.	.	16cc/JJ	5	.
4.AA^\ 4.Dn 4.E	.	16g#X^\LL	3	.
.	.	16e\	1	.
.	.	16g#\	2	.
.	.	16b\	1	.
.	.	16ee\	2	.
.	.	16gg#X\JJ	4	.
=58	=58	=58	=58	=58
8AA\ 8E	.	8cc\ 8aa	1 5	.
8r	.	8r	.	.
8F\ 8c	.	8cc\ 8aa	.	pp
4A\ 4e	.	4cc\ 4aa	.	.
8r	.	8r	.	.
*clefG2	*	*	*	*
=59	=59	=59	=59	=59
*	*	*^	*	*
4.B/ 4.f	1 5	8dd/L	[4.a\	4	pp
.	.	16ee/L	.	.	.
.	.	16dd/	.	.	.
.	.	16cc/	.	.	.
.	.	16dd/JJ	.	.	.
8c/ 8e	2 4	8ee/	8a\]	.	.
8r	.	8r	4ryy	.	.
(8d/L 8f	1 3	[8a/L 8dd	.	4	.
*	*	*v	*v	*	*
=60	=60	=60	=60	=60
8e/J)	.	8a/J] 8cc	.	.
8r	.	8r	.	.
*clefF4	*	*	*	*
(8E\	4	(8d/ 8g#X 8b	5	.
4A\)	.	4c/) 4a	4	.
8r	.	8r	.	.
=61	=61	=61	=61	=61
4FF/ 4F	.	4c/ 4f 4a	.	.
8r	.	8r	.	.
4DD/ 4D	.	4B/ 4f 4a	.	.
8r	.	8r	.	.
=62	=62	=62	=62	=62
2.AAA;/ 2.AA	.	2.c;/ 2.e 2.a	.	.
==	==	==	==	==
*-	*-	*-	*-	*-
!!!system-decoration: [(s1,s2)]
!!!RDF**kern: > = above
!!!RDF**kern: < = below
!!!ENC: Anastazja Marusiak
!!!END: 2023-10-08
!!!ENC: Leszek Kubiak
!!!END: 2023-12-06
